X: 3
T:Alabama Jubilee
M:8/8
L:1/8
K:G
"E7" ed B e2 d2 B|ed B (e e4)| "A" e^c A e2 c2 A| e^c A e3 =f|"D"f2 f f2
 e d2| e^d e f2 =d ef| "G" gf g e2 d B2| gf g e2 d B2|
"E" ed B e2 d2 B| "E7" ed B (e e4)| "Am" A^GAB cBcd| e2 e e2 fga| "G" b4
 b3 a| g2 e2 d2 ^cd|"A7" eg eg "D7" f2 d2| "G"(g4 g4):||
